brand-assets/voidzero/voidzero-black-bg.svg

<svg xmlns="http://www.w3.org/2000/svg" width="400" height="400" fill="none" viewBox="0 0 400 400"><path fill="#08060d" d="M0 0h400v400H0z"/><path fill="#fff" d="M101.187 109c-35.84 51.313-36.05 130.852 0 182.351H76.965c-36.059-51.499-35.849-131.038 0-182.351zm222.054 0c35.841 51.313 36.05 130.852 0 182.351h-24.22c36.058-51.499 35.848-131.038 0-182.351zm-123.136.252c50.222 0 90.924 40.711 90.924 90.926 0 50.214-40.71 90.925-90.924 90.926-50.215 0-90.926-40.712-90.926-90.926 0-50.215 40.711-90.926 90.926-90.926m55.385 52.733c-1.343-3.013-5.381-3.576-7.464-1.015l-78.65 96.458c-1.881 2.317-.974 5.785 1.797 6.893 8.144 3.258 17.782 4.869 28.932 4.869 41.264 0 62.135-22.164 62.135-69.012 0-15.39-2.258-28.084-6.75-38.193m-55.385-30.568c-41.5 0-62.137 22.165-62.137 68.761 0 15.448 2.25 28.21 6.75 38.377 1.335 3.022 5.382 3.585 7.464 1.024l78.508-96.467c1.889-2.317.974-5.792-1.805-6.892-8.119-3.216-17.715-4.803-28.78-4.803"/></svg>

<svg width="400" height="400" viewBox="0 0 400 400" fill="none" xmlns="http://www.w3.org/2000/svg">
<rect width="400" height="400" fill="#08060D"/>
<path d="M101.187 109C65.3462 160.313 65.1363 239.852 101.187 291.351H76.965C40.9064 239.852 41.1162 160.313 76.965 109H101.187ZM323.241 109C359.082 160.313 359.291 239.852 323.241 291.351H299.021C335.079 239.852 334.869 160.313 299.021 109H323.241ZM200.105 109.252C250.327 109.252 291.029 149.963 291.029 200.178C291.029 250.392 250.319 291.103 200.105 291.104C149.89 291.104 109.179 250.392 109.179 200.178C109.179 149.963 149.89 109.252 200.105 109.252ZM255.49 161.985C254.147 158.972 250.109 158.409 248.026 160.97L169.376 257.428C167.495 259.745 168.402 263.213 171.173 264.321C179.317 267.579 188.955 269.19 200.105 269.19C241.369 269.19 262.24 247.026 262.24 200.178C262.24 184.788 259.982 172.094 255.49 161.985ZM200.105 131.417C158.605 131.417 137.968 153.582 137.968 200.178C137.968 215.626 140.218 228.388 144.718 238.555C146.053 241.577 150.1 242.14 152.182 239.579L230.69 143.112C232.579 140.795 231.664 137.32 228.885 136.22C220.766 133.004 211.17 131.417 200.105 131.417Z" fill="white"/>
</svg>
